icons/hair-brush-two-color.svg

<?xml version="1.0" encoding="UTF-8"?><svg id="uuid-32164b19-6f20-4497-b848-64b423079db1" xmlns="http://www.w3.org/2000/svg" viewBox="0 0 50 50"><path d="M29.36,28.05l.22-.22c1.03-1.03,1.03-2.71,0-3.75L15.8,10.31c-1-1-2.75-1-3.75,0l-.22,.22c-.2,.2-.51,.2-.71,0l-1.57-1.57-3.11,3.11L43.4,49.02l3.11-3.11L29.36,28.76c-.2-.2-.2-.51,0-.71Z" fill="#ffcd00"/><path d="M45.82,43.81L28.65,26.64c.76-.84,1.05-1.94,.89-3h5.41c.28,0,.5-.22,.5-.5s-.22-.5-.5-.5h-5.69s-.02,0-.02,0c-.17-.37-.4-.72-.7-1.02l-.05-.05,6.5-2.47c.26-.1,.39-.39,.29-.65-.1-.26-.39-.39-.65-.29l-6.92,2.63-.98-.98,5.26-5.26c.2-.2,.2-.51,0-.71s-.51-.2-.71,0l-5.26,5.26-2.46-2.46,5.26-5.26c.2-.2,.2-.51,0-.71s-.51-.2-.71,0l-5.26,5.26-2.46-2.46,5.26-5.26c.2-.2,.2-.51,0-.71s-.51-.2-.71,0l-5.26,5.26-2.46-2.46,5.26-5.26c.2-.2,.2-.51,0-.71s-.51-.2-.71,0l-5.26,5.26-.78-.78s.04-.04,.06-.07l2.84-6.73c.11-.25-.01-.55-.27-.65-.25-.11-.55,.01-.65,.27l-2.72,6.44-.24-.24c-.26-.26-.55-.45-.85-.61,0-.03,.02-.06,.02-.09V1.48c0-.28-.22-.5-.5-.5s-.5,.22-.5,.5V6.87c-1.1-.23-2.29,.06-3.18,.86l-1.58-1.58c-.2-.2-.51-.2-.71,0l-3.82,3.82c-.2,.2-.2,.51,0,.71L41.3,48.33c.1,.1,.23,.15,.35,.15s.26-.05,.35-.15l3.82-3.82c.2-.2,.2-.51,0-.71ZM14.05,8.56l13.78,13.78c.99,.99,1.03,2.57,.13,3.61L10.44,8.43c1.04-.9,2.62-.86,3.61,.13Zm27.6,38.71L4.7,10.32l3.11-3.11,1.57,1.57h0L27.61,27.01h0l17.15,17.15-3.11,3.11Z"/></svg>

<svg id="af4331f1-c0e3-42e0-94fd-fdbff0103c9d" data-name="ICONS" xmlns="http://www.w3.org/2000/svg" viewBox="0 0 50 50"><path d="M29.36,28.05l.21-.21a2.64,2.64,0,0,0,0-3.75L15.8,10.31a2.72,2.72,0,0,0-3.75,0l-.22.22a.5.5,0,0,1-.7,0L9.56,9,6.45,12.07,43.4,49l3.11-3.11L29.36,28.76A.5.5,0,0,1,29.36,28.05Z" fill="#fdd600"/><path d="M45.82,43.81,28.65,26.64a3.59,3.59,0,0,0,.89-3H35a.5.5,0,0,0,.5-.5.5.5,0,0,0-.5-.5H29.23a3.64,3.64,0,0,0-.7-1l-.05-.05L35,19.11a.5.5,0,1,0-.36-.94L27.7,20.8l-1-1L32,14.56a.51.51,0,0,0,0-.71.5.5,0,0,0-.71,0L26,19.11l-2.46-2.46,5.26-5.26a.49.49,0,1,0-.7-.7L22.85,16l-2.46-2.46,5.26-5.26a.5.5,0,0,0,0-.71.51.51,0,0,0-.71,0l-5.26,5.26-2.45-2.45,5.26-5.26a.51.51,0,0,0,0-.71.5.5,0,0,0-.71,0L16.52,9.62l-.79-.79s0,0,.06-.06L18.63,2a.49.49,0,0,0-.27-.65.5.5,0,0,0-.65.26L15,8.09l-.24-.24a3.4,3.4,0,0,0-.85-.61.29.29,0,0,0,0-.09V1.48a.5.5,0,0,0-1,0V6.87a3.64,3.64,0,0,0-3.18.86L8.16,6.15a.5.5,0,0,0-.71,0L3.64,10a.5.5,0,0,0,0,.71L41.3,48.33a.49.49,0,0,0,.35.15.47.47,0,0,0,.35-.15l3.82-3.81A.5.5,0,0,0,45.82,43.81ZM14.05,8.56,27.82,22.34a2.65,2.65,0,0,1,.14,3.6L10.44,8.43A2.66,2.66,0,0,1,14.05,8.56Zm27.6,38.71L4.7,10.32,7.81,7.21,9.37,8.78h0L27.61,27h0L44.76,44.16Z" fill="#231f20"/></svg>
